apps/mobile/assets/icons/phosphor/speaker-x.svg

<svg
  height="32"
  viewBox="0 0 256 256"
  width="32"
  xmlns="http://www.w3.org/2000/svg"
>
  <path
    d="m155.51 24.81a8 8 0 0 0 -8.42.88l-69.84 54.31h-45.25a16 16 0 0 0 -16 16v64a16 16 0 0 0 16 16h45.25l69.84 54.31a8 8 0 0 0 12.91-6.31v-192a8 8 0 0 0 -4.49-7.19zm-123.51 71.19h40v64h-40zm112 111.64-56-43.55v-72.18l56-43.55zm101.66-61.3a8 8 0 0 1 -11.32 11.32l-18.34-18.35-18.34 18.35a8 8 0 0 1 -11.32-11.32l18.35-18.34-18.35-18.34a8 8 0 0 1 11.32-11.32l18.34 18.35 18.34-18.35a8 8 0 0 1 11.32 11.32l-18.35 18.34z"
  />
</svg>

<svg xmlns="http://www.w3.org/2000/svg" width="32" height="32" fill="#000000" viewBox="0 0 256 256"><path d="M155.51,24.81a8,8,0,0,0-8.42.88L77.25,80H32A16,16,0,0,0,16,96v64a16,16,0,0,0,16,16H77.25l69.84,54.31A8,8,0,0,0,160,224V32A8,8,0,0,0,155.51,24.81ZM32,96H72v64H32ZM144,207.64,88,164.09V91.91l56-43.55Zm101.66-61.3a8,8,0,0,1-11.32,11.32L216,139.31l-18.34,18.35a8,8,0,0,1-11.32-11.32L204.69,128l-18.35-18.34a8,8,0,0,1,11.32-11.32L216,116.69l18.34-18.35a8,8,0,0,1,11.32,11.32L227.31,128Z"></path></svg>
